X:1
T: The Deil's Awa' wi' the Exciseman
C:
R:Jig
Q:180
K:A
M:6/8
L:1/16
|:e2|A4e2 e2f2e2|d4c2 B2c2d2|e4A2 A4B2|c6 e4A2|
A4e2 e2f2e2|d4c2 B2c2d2|e4A2 A4B2|1c6 e4:|2c6e6|
|:c2B2c2 A4c2|B2A2B2 E4E2|A4A2 A4B2|c6 e6|
c2B2c2 A4c2|B2A2B2 E4g2|a4A2 A4B2|1c6 e6:|2c6e4||
